X:1
T:Title
%%score { ( 1 4 ) | ( 2 3 ) }
L:1/8
Q:1/4=128
M:2/2
K:C
V:1 treble nm="Grand Piano"
V:4 treble 
V:2 bass 
V:3 bass 
V:1
 [EG]4 [FA]2 [EG]2 | [DF]2 [EG]2 [Ec]4 | [DB]2 [FA]2 [G,EG]2 [B,DF]2 | [_EA]4 [=EG]4 | %4
w: Wm.~J.~Kirkpatrick * *||||
 [EG]4 [_E^F]2 [=EG]2 | [FA]2 [EG]2 [Ec]4 | [DB]3 [GB] [^Fd]3 [Fd] | G8 | d3 c BA .[G,B,G]2 | %9
w: |||||
 [G,CE]2 [FA]2 [EG]4 | d3 c BA .[G,B,G]2 |[M:3/4] [G,CE]2 [FA]2 [EG]2 |[M:1/4] [EG]>[EG] | %13
w: ||||
[M:4/4] [Ec]4 [Ec]2 G>G | d4 d2 G>G |[M:9/8] [Ge]6 z3 |] %16
w: |||
V:2
 [C,C]4 [C,C]2 [C,C]2 | [C,A,]2 [C,C]2 [C,G,]4 | G,2 G,2 G,,2 G,,2 | [C,C]8 | %4
 [C,C]4 [C,C]2 [C,C]2 | [C,C]2 [C,C]2 [C,G,]4 | [D,G,]3 [D,B,] [D,A,]3 [D,C] | [G,B,D]8 | %8
 [G,B,F]3 [G,CE] .[G,DF]3[K:bass] F | C,2 [C,C]2 [C,C]4 | [G,B,F]3 [G,CE] .[G,DF]3[K:bass] F | %11
[M:3/4] C,2 [C,C]2 [C,C]2 |[M:1/4] [C,C]>[C,C] |[M:4/4] [C,G,]4 [C,G,]2 [E,C]>[E,C] | %14
 [G,B,G]4 [G,B,G]2[K:bass] [G,B,]>[G,B,] |[M:9/8] .[C,C]3 z2 [C,G,]- [C,G,]3 |] %16
V:3
 x8 | x8 | x8 | x8 | x8 | x8 | x8 | x8 | z4 z2[K:bass] G,,2 | x8 | z4 z2[K:bass] G,,2 |[M:3/4] x6 | %12
[M:1/4] x2 |[M:4/4] x8 | x6[K:bass] x2 |[M:9/8] x9 |] %16
V:4
 x8 | x8 | x8 | x8 | x8 | x8 | x8 | x8 | x8 | x8 | x8 |[M:3/4] x6 |[M:1/4] x2 |[M:4/4] x8 | x8 | %15
[M:9/8] z2 C- C2 [Ec]- [Ec]3 |] %16

